X:10
T:Gubben Laugrens Polska
R:sl\"angpolska
A:Gotland
Z:id:hn-sp-10
M:3/4
L:1/16
K:Dm
e4 e^cAc e^cAc|d2e2 e^cAc e3e|{fe}f2ef d3e f2ef|gfed ^cdc=B A4|
[e4A4] e^cAc e^cAc|d2e2 e^cAc e3e|{fe}f2ef d2e2 f2ag|fed^c c2d2 d4:|
|:f2ff =c2cc A2c2|f3a g_beg g2f2|{fe}f2ef d3e f2ef|gfed ^cdc=B A4|
[e4A4] e^cAc e^cAc|d2e2 e^cAc e3e|{fe}f2ef d2e2 f2ag|fed^c c2d2 d4:|
<end>
<start>
